X: 922
T: Squirrel Hunters
B: jims roots
M:4/4
L:1/8
R: reel
Q: 1/4=100
K:G
V:1 
 |:"Em"{d}e2-ed B2Bd | efed B2 BA | "G"GABc d2 dc | dAcA B^cd_e |
"Em"e3d BABd | efed BcBA | "G"GABc dABd | "D"A6 {d}(e2 :|
 |:"Em"e)deg a2ag | edef g2BA | "G"GABc d2 dB | dAcA B^cde |
"Em"edeg abag | edef geBA | "G"GABc dABd |"D"A6 {d}(e2:|
% abcbook-tune_id 6298c2876b9e64b5d4a0ac2e


% abcbook-boost 0
% abcbook-tablature 
% abcbook-transpose 
% abcbook-lastupdated 1654178440811
% abcbook-soundfonts 
% abcbook-repeats 1


